.themes/la/unity/close_dash_disabled.svg

<svg xmlns="http://www.w3.org/2000/svg" width="24" height="24" viewBox="0 0 24 24" fill="#ccccfa" opacity="0.3">
  <circle cx="12" cy="12" r="10" opacity="0"/>
  <path d="m8.41 7l-1.41 1.41 3.59 3.59-3.59 3.59 1.41 1.41 3.59-3.59 3.59 3.59 1.41-1.41-3.59-3.59 3.59-3.59-1.41-1.41-3.59 3.59-3.59-3.59z"/>
</svg>

<svg xmlns="http://www.w3.org/2000/svg" width="24" height="24" viewBox="0 0 24 24" fill="#ccccfa" opacity="0.3">
  <circle cx="12" cy="12" r="10" opacity="0"/>
  <path d="M17 8.41L15.59 7 12 10.59 8.41 7 7 8.41 10.59 12 7 15.59 8.41 17 12 13.41 15.59 17 17 15.59 13.41 12z"/>
</svg>
